prod/images/flags-4x3/kp.svg

<svg viewBox="0 0 640 480" xmlns="http://www.w3.org/2000/svg" xmlns:xlink="http://www.w3.org/1999/xlink"><clipPath id="a"><path d="m5 .1h682.6v511.9h-682.5z"/></clipPath><g clip-path="url(#a)" fill-rule="evenodd" transform="matrix(.93768 0 0 .93768 -4.8 -.1)"><path d="m776 511.5h-852v-511h852z" fill="#fff" stroke="#000"/><path d="m776 419h-852v92.5h852z" fill="#3e5698"/><path d="m776 397.6h-852v-283.2h852z" fill="#c60000"/><path d="m776 .6h-852v92.4h852z" fill="#3e5698"/><path d="m328.5 256c0 63.5-53 115-118.6 115s-118.6-51.5-118.6-115 53-114.8 118.6-114.8c65.5 0 118.6 51.4 118.6 114.9z" fill="#fff"/><path d="m175.8 270.6-57-40.7 71-.2 22.7-66.4 21.1 66.1 71-.4-57.9 41.2 21.3 66.1-57-40.7-58 41.3z" fill="#c40000"/></g></svg>

<svg viewBox="0 0 640 480" xmlns="http://www.w3.org/2000/svg"><clipPath id="a"><path d="M5 .1h682.6V512H5.1z"/></clipPath><g clip-path="url(#a)" fill-rule="evenodd" transform="translate(-4.8 -.1) scale(.93768)"><path d="M776 511.5H-76V.5h852z" fill="#fff" stroke="#000"/><path d="M776 419H-76v92.5h852z" fill="#3e5698"/><path d="M776 397.6H-76V114.4h852z" fill="#c60000"/><path d="M776 .6H-76V93h852z" fill="#3e5698"/><path d="M328.5 256c0 63.5-53 115-118.6 115S91.3 319.5 91.3 256s53-114.8 118.6-114.8c65.5 0 118.6 51.4 118.6 114.9z" fill="#fff"/><path d="M175.8 270.6l-57-40.7 71-.2 22.7-66.4 21.1 66.1 71-.4-57.9 41.2 21.3 66.1-57-40.7-58 41.3z" fill="#c40000"/></g></svg>
